X:355
T:Spotted Dog, The
M:6/8
L:1/8
Q:120
C:John McEvoy
R:Jig (Key of A)
K:A
"A"EAA ABc | BAF AFE | "E"FBB Bce | "D"(3fga f ecA |
"A"EAA ABc | BAF Ace | "D"f2a "A"e2a |1 ABc "E"BAF :|2 ABc "E"B2A |:
"A"cee ece | fec ecA | eaf ecA | "E"EFA B2A |
"A"cee ece | fec e2a | "D"f2a "A"e2a | ABc "E"B2A :|]
